Adwaita++-Dark/actions/16/edit-delete.svg

<svg height="16" width="16" xmlns="http://www.w3.org/2000/svg">
  <g fill="#e6ddff">
    <path d="m12 15c.52 0 1-.48 1-1v-9h-11v9c0 .52.48 1 1 1"/>
    <path d="m1 3v1h13v-1c0-1-1-1-1-1h-3s0-1-1-1h-3c-1 0-1 1-1 1h-3s-1 0-1 1z"/>
  </g>
</svg>

<svg xmlns="http://www.w3.org/2000/svg" width="16" height="16" version="1.1">
 <path style="fill:#E6DDFF" d="M 12,15 C 12.52,15 13,14.52 13,14 V 5 H 2 V 14 C 2,14.52 2.48,15 3,15"/>
 <path style="fill:#E6DDFF" d="M 1,3 V 4 H 14 V 3 C 14,2 13,2 13,2 H 10 C 10,2 10,1 9,1 H 6 C 5,1 5,2 5,2 H 2 C 2,2 1,2 1,3 Z"/>
</svg>
